X:1
T:Po' Farmer
M:2/2
L:1/4
K:D
 F4| D D2 z| A4| B A2 z| F4| D D2 D| E/2 E E/2 F E| D2 z F| A3/2 A/2 A A|\
 B A2 A| d d A/2 B3/2| A2 z A| d d d/2 A3/2| B A2 E| F3/2 F/2E/2 E3/2|\
 D2 z2|
